material/.icons/material/phone-outgoing.svg

<svg xmlns="http://www.w3.org/2000/svg" viewBox="0 0 24 24"><path d="M4 3a1 1 0 00-1 1 17 17 0 0017 17 1 1 0 001-1v-3.5a1 1 0 00-1-1c-1.25 0-2.45-.2-3.57-.57a1.02 1.02 0 00-1.02.24l-2.2 2.2a15.045 15.045 0 01-6.59-6.59l2.2-2.21a.96.96 0 00.25-1A11.36 11.36 0 018.5 4a1 1 0 00-1-1H4m11 0v1.5h3.5L13 10l1 1 5.5-5.5V9H21V3h-6z"/></svg>

<?xml version="1.0" encoding="UTF-8"?><!DOCTYPE svg PUBLIC "-//W3C//DTD SVG 1.1//EN" "http://www.w3.org/Graphics/SVG/1.1/DTD/svg11.dtd"><svg xmlns="http://www.w3.org/2000/svg" xmlns:xlink="http://www.w3.org/1999/xlink" version="1.1" id="mdi-phone-outgoing" width="24" height="24" viewBox="0 0 24 24"><path d="M4,3A1,1 0 0,0 3,4A17,17 0 0,0 20,21A1,1 0 0,0 21,20V16.5A1,1 0 0,0 20,15.5C18.75,15.5 17.55,15.3 16.43,14.93C16.08,14.82 15.69,14.9 15.41,15.17L13.21,17.37C10.38,15.93 8.06,13.62 6.62,10.78L8.82,8.57C9.1,8.31 9.18,7.92 9.07,7.57C8.7,6.45 8.5,5.25 8.5,4A1,1 0 0,0 7.5,3H4M15,3V4.5H18.5L13,10L14,11L19.5,5.5V9H21V3H15Z" /></svg>
